packages/tokens/icons/feedback/size32Px.svg

<svg viewBox="0 0 32 32" fill="none" xmlns="http://www.w3.org/2000/svg" width="1em" height="1em"><path d="M5.57539 28.985L5.56477 28.9948C4.41718 30.0904 2.5 29.2828 2.5 27.5652L2.5 4.43005C2.5 3.34478 3.33976 2.5 4.33333 2.5L27.6667 2.5C28.6602 2.5 29.5 3.34478 29.5 4.43005L29.5 23.57C29.5 24.6552 28.6602 25.5 27.6667 25.5L10.4043 25.5C9.78635 25.5 9.19029 25.7289 8.73113 26.1425L5.57539 28.985Z" stroke="currentColor" stroke-linecap="round" stroke-linejoin="round"/><path d="M6.5 12C6.5 11.7239 6.72386 11.5 7 11.5H10C10.8284 11.5 11.5 12.1716 11.5 13L11.5 20C11.5 20.8284 10.8284 21.5 10 21.5H7C6.72386 21.5 6.5 21.2761 6.5 21L6.5 12Z" stroke="currentColor"/><circle cx="9.5" cy="19.5" r="0.25" stroke="currentColor" stroke-width="0.5"/><path d="M20 21.5002L15.28 21.4998C15.0942 21.4998 14.9094 21.4739 14.7308 21.4229L11.5 20.5" stroke="currentColor"/><path d="M17.5 11.0005C17.2239 11.0005 17 11.2243 17 11.5005C17 11.7766 17.2239 12.0005 17.5 12.0005V11.0005ZM17.5 12.0005L24.25 12.0005V11.0005L17.5 11.0005V12.0005ZM24.25 13.5005H22.4V14.5005H24.25V13.5005ZM25 12.7505C25 13.1647 24.6642 13.5005 24.25 13.5005V14.5005C25.2165 14.5005 26 13.717 26 12.7505H25ZM24.25 12.0005C24.6642 12.0005 25 12.3363 25 12.7505H26C26 11.784 25.2165 11.0005 24.25 11.0005V12.0005Z" fill="currentColor"/><path d="M21 14.0005H23.75C24.4404 14.0005 25 14.5601 25 15.2505V15.2505C25 15.9408 24.4404 16.5005 23.75 16.5005H20.5" stroke="currentColor" stroke-linecap="round"/><path d="M21 16.5005H23.25C23.9404 16.5005 24.5 17.0601 24.5 17.7505V17.7505C24.5 18.4408 23.9404 19.0005 23.25 19.0005H21" stroke="currentColor" stroke-linecap="round"/><path d="M20 19.0005H22.25C22.9404 19.0005 23.5 19.5601 23.5 20.2505V20.2505C23.5 20.9408 22.9404 21.5005 22.25 21.5005H18.6667" stroke="currentColor" stroke-linecap="round"/><path d="M17.5 11.5004L18.3404 8.32473C18.4464 7.92444 18.5 7.51213 18.5 7.09807L18.5 6.74988C18.5 6.05948 17.9402 5.49984 17.2498 5.49995V5.49995C16.5596 5.50006 16.0049 6.0632 15.8811 6.74226C15.3788 9.49612 13.3715 12.5 11.5 12.5003" stroke="currentColor"/></svg>

<svg xmlns="http://www.w3.org/2000/svg" fill="none" viewBox="0 0 32 32" width="1em" height="1em"><path stroke="currentColor" stroke-linecap="round" stroke-linejoin="round" d="m5.575 28.985-.01.01c-1.148 1.095-3.065.288-3.065-1.43V4.43c0-1.085.84-1.93 1.833-1.93h23.334c.993 0 1.833.845 1.833 1.93v19.14c0 1.085-.84 1.93-1.833 1.93H10.404a2.5 2.5 0 0 0-1.673.642l-3.156 2.843Z"/><path stroke="currentColor" d="M6.5 12a.5.5 0 0 1 .5-.5h3a1.5 1.5 0 0 1 1.5 1.5v7a1.5 1.5 0 0 1-1.5 1.5H7a.5.5 0 0 1-.5-.5v-9Z"/><circle cx="9.5" cy="19.5" r=".25" stroke="currentColor" stroke-width=".5"/><path stroke="currentColor" d="M20 21.5h-4.72a2 2 0 0 1-.55-.077L11.5 20.5"/><path fill="currentColor" d="M17.5 11a.5.5 0 1 0 0 1v-1Zm0 1h6.75v-1H17.5v1Zm6.75 1.5H22.4v1h1.85v-1Zm.75-.75a.75.75 0 0 1-.75.75v1A1.75 1.75 0 0 0 26 12.75h-1Zm-.75-.75a.75.75 0 0 1 .75.75h1A1.75 1.75 0 0 0 24.25 11v1Z"/><path stroke="currentColor" stroke-linecap="round" d="M21 14h2.75c.69 0 1.25.56 1.25 1.25v0c0 .69-.56 1.25-1.25 1.25H20.5m.5 0h2.25c.69 0 1.25.56 1.25 1.25v0c0 .69-.56 1.25-1.25 1.25H21m-1 0h2.25c.69 0 1.25.56 1.25 1.25v0c0 .69-.56 1.25-1.25 1.25h-3.583"/><path stroke="currentColor" d="m17.5 11.5.84-3.175c.106-.4.16-.813.16-1.227V6.75c0-.69-.56-1.25-1.25-1.25s-1.245.563-1.369 1.242C15.38 9.496 13.371 12.5 11.5 12.5"/></svg>
